**kern	**kern
*staff1	*staff1
*solo1[solo1]
*solo2[solo2]
*solo3[solo3]
*solo4[solo4]
*solo5[solo5]
*solo6[solo6]
*solo7[solo7]
*solo8[solo8]
*head1[head1]
=1-	=1-	!!Intro
*clefG2	*clefG2
*k[]	*k[]
*B-:	*B-:
*M4/4	*M4/4
1r	.
=2	=2
1r	.
=3	=3
1r	.
=4	=4
1r	.
=5	=5	!!Head
2r	1B-:dom
*>head1
{4b-\	.
8g/L	.
8g-/J	.
=6||	=6||
8f/L	1B-:dom
8e-/	.
8d/	.
8c/J	.
8A/L	.
8B-/	.
8c/	.
8A/J	.
=7	=7
8B-/L	1B-:dom
8c/	.
8d/	.
8e-/J	.
8f/L	.
[8c/J	.
4c/]}	.
=8	=8
1r	1B-:dom
=9	=9
2r	1E-:dom
{4b-\	.
8g/L	.
8g-/J	.
=10	=10
8f/L	1E-:dom
8e-/	.
8d-/	.
8c/J	.
8A/L	.
8B-/	.
8c/	.
8B-/J	.
=11	=11
8A/L	1B-:dom
8B-/	.
8c/	.
8B-/J	.
8A/L	.
8B-/	.
8c/	.
[8f/J	.
=12	=12
2f/]}	2B-:dom
2r	2G:dom
=13	=13
2r	1C:min
{4b-\	.
8g/L	.
8g-/J	.
=14	=14
8f/L	1F:dom
8e-/	.
8d/	.
8c/J	.
8A/L	.
8B-/	.
8c/	.
8B-/J	.
=15	=15
8A/L	1B-:dom
8B-/	.
8d/	.
8f/J	.
8r	.
8f/	.
[4c/	.
=16	=16
2c/]}	2C:min
2r	2F:dom
=17	=17	!!Chorus 1
*>solo1	*>solo1
{8a\L	1B-:dom
8b-\	.
8cc\	.
8b-\J	.
8a/L	.
8b-/J}	.
4r	.
=18||	=18||
2r	1E-:dom
{12a-/L	.
12b-/	.
12a-/J	.
8g/L	.
8g-/J	.
=19	=19
8f/L	1B-:dom
8e-/	.
8d/	.
8c/J	.
8B-/L	.
8A/J	.
12A-/L	.
12c/	.
12e-/J	.
=20	=20
8b-/L	1B-:dom
8g-/	.
8d/	.
8B-/J	.
8c/L	.
8A-/	.
8F/	.
8B-/J	.
=21	=21
8G/L	1E-:dom
8B-/	.
8c/	.
8d/J	.
8f/L	.
8e-/	.
8B-/	.
8G/J	.
=22	=22
8c/L	1E-:dom
8d-/	.
8B-/	.
8G/J	.
8c/L	.
8A/J	.
12B-/L	.
12dn/	.
12f/J	.
=23	=23
12a\L	1B-:dom
12b-\	.
12bn\J	.
8cc/L	.
8a/J	.
8ff\L	.
8cc\J}	.
4r	.
=24	=24
2r	2B-:dom
2r	2G:dom
=25	=25
{8ee-\L	1C:min
8dd\	.
8cc\	.
8ee-\J	.
8dd\L	.
8cc\	.
8b\	.
8g\J	.
=26	=26
8b-/L	1F:dom
8a-/	.
8an/	.
8f#/J	.
8e-/L	.
8en/	.
8fn/	.
8A/J	.
=27	=27
8B-/L	1B-:dom
8e-/	.
8c/	.
8c#/J	.
2d/}	.
=28	=28
1r	1F:dom
=29	=29	!!Chorus 2
8r	1B-:dom
*>solo2	*>solo2
{8c#/	.
12d/L	.
12f/	.
12a/J	.
8cc/L	.
8a/J	.
16b-\LL	.
16cc\	.
16dd\	.
16ee-\JJ	.
=30||	=30||
8ff\L	1B-:dom
8ff\	.
8ee\	.
8ee\J	.
8ee-\L	.
8ee-\	.
8dd\J	.
8r	.
=31	=31
8cc\L	1B-:dom
8dd\	.
8ee-\	.
8cc\J	.
8cc#\L	.
8dd\	.
8b-\	.
8bn\J	.
=32	=32
8cc\L	2F:min
8b\	.
8b-\	.
8a\J	.
8a-/L	2B-:dom
8c/	.
8b-/	.
8a-/J	.
=33	=33
8g/L	1E-:dom
8f/	.
8e-/	.
8B-/J	.
2f/}	.
=34	=34
1r	1E-:dom
=35	=35
8r	1B-:dom
{8c#/	.
12d/L	.
12f/	.
12a/J	.
[4cc\	.
8cc/L]	.
8cn/J	.
=36	=36
12d-/L	1D-:min
12e/	.
12a-/J	.
[4b\	.
8b/L]	.
8B/J	.
12c/L	.
12e-/	.
12g/J	.
=37	=37
4b-\	1C:min
4r	.
8r	.
8B/	.
12c/L	.
12e-/	.
12g/J	.
=38	=38
8b-/L	1F:dom
8g/	.
8e-/	.
8c/J	.
8b-/L	.
8g-/	.
8e-/	.
8B/J	.
=39	=39
4b-\	1B-:dom
4r	.
8r	.
8A/	.
12B-/L	.
12d/	.
12f/J	.
=40	=40
8b-/L	1F:dom
[8f/J	.
4f/]}	.
2r	.
=41	=41	!!Chorus 3
8r	1B-:dom
*>solo3	*>solo3
{8A/	.
12B-/L	.
12d/	.
12f/J	.
8b-/L	.
8a-/	.
8g/	.
8f/J	.
=42||	=42||
8e-/L	1E-:dom
8A/	.
8B-/	.
8c/J	.
8d-/L	.
8B-/	.
8G/	.
8A/J	.
=43	=43
8c/L	1B-:dom
8B-/	.
8A/	.
8c/J	.
8g/L	.
8g-/	.
8e/	.
8B-/J	.
=44	=44
8B/L	1B-:dom
8d-/	.
8A-/	.
8G-/J	.
8Gn/L	.
8B-/	.
8c/	.
8dn/J	.
=45	=45
8f/L	1E-:dom
8e/	.
8e-/	.
8A/J	.
8B-/L	.
8d-/	.
8B-/	.
8G/J	.
=46	=46
8c/L	1E-:dom
8A/J	.
12B-/L	.
12d/	.
12f/J	.
12a\L	.
12b-\	.
12bn\J	.
4cc\}	.
=47	=47
2r	1B-:dom
4r	.
{8a/L	.
8f/J	.
=48	=48
8d/L	1D-:min
8c/J	.
2b\	.
12a-/L	.
12e/	.
12d-/J	.
=49	=49
16b-/LL	1C:min
16a/	.
16g/	.
16f/JJ	.
2e-/}	.
4r	.
=50	=50
2r	1F:dom
{12g-/L	.
12a-/	.
12g-/J	.
8f/L	.
8e/J	.
=51	=51
8e-/L	1B-:dom
8B-/J	.
2.d/}	.
=52	=52
1r	1F:dom
=53	=53	!!Chorus 4
4r	1B-:dom
8r	.
*>solo4	*>solo4
{[8d/	.
4d/]	.
4f/	.
=54||	=54||
8b-/L	1E-:dom
8f/	.
8d/	.
8B-/J	.
8e-/L	.
8f/J	.
12g-/L	.
12a-/	.
12g-/J	.
=55	=55
8f/L	1B-:dom
8e/	.
8e-/J}	.
8r	.
4r	.
8r	.
{8c/	.
=56	=56
8d-/L	1B-:dom
8dn/	.
8B-/	.
8Bn/J	.
8c/L	.
8B/	.
8B-/	.
8A-/J	.
=57	=57
8G/	1E-:dom
8r	.
8r	.
8d/	.
8f/L	.
8e-/J}	.
4r	.
=58	=58
1r	1E-:dom
=59	=59
4r	1B-:dom
{8cc#\L	.
8dd\J	.
8gg\L	.
8gg-\	.
8ff\	.
8ee\J	.
=60	=60
8ee-\L	1G:dom
16dd\L	.
16cc\J	.
8b\	.
8d\J	.
8f/L	.
8a-/	.
8g/	.
8f/J	.
=61	=61
8e-/L	1C:min
8g/	.
8cc/	.
8ee-/J	.
8dd\L	.
8cc\	.
8b\	.
8g\J	.
=62	=62
8b-/L	1F:dom
8a-/	.
8an/	.
8g-/J	.
8e-/L	.
8en/	.
8f/	.
8c#/J	.
=63	=63
12d/L	1B-:dom
12f/	.
12a/J	.
8cc/L	.
8a/J	.
8b-\L	.
16cc\L	.
16b-\J	.
8a\	.
8g\J	.
=64	=64
8f/L	2C:min
8e/	.
8e-/	.
8G/J	.
4d/	2F:dom
8f/L	.
[8c/J	.
=65	=65
8.c/L]	1B-:dom
16B-/Jk	.
2c/}	.
4r	.
=66||	=66||
1r	.
=67	=67
1r	.
=68	=68
1r	.
=69	=69
1r	.
=70	=70
1r	.
=71	=71
1r	.
=72	=72
1r	.
=73	=73
1r	.
=74	=74
1r	.
=75	=75
1r	.
=76	=76
1r	.
=77	=77
1r	.
=78	=78
1r	.
=79	=79
1r	.
=80	=80
1r	.
=81	=81
1r	.
=82	=82
1r	.
=83	=83
1r	.
=84	=84
1r	.
=85	=85
1r	.
=86	=86
1r	.
=87	=87
1r	.
=88	=88
1r	.
=89	=89
1r	.
=90	=90
1r	.
=91	=91
1r	.
=92	=92
1r	.
=93	=93
1r	.
=94	=94
1r	.
=95	=95
1r	.
=96	=96
1r	.
=97	=97
1r	.
=98	=98
1r	.
=99	=99
1r	.
=100	=100
1r	.
=101	=101
1r	.
=102||	=102||
1r	.
=103	=103
1r	.
=104	=104
1r	.
=105	=105
1r	.
=106	=106
1r	.
=107	=107
1r	.
=108	=108
1r	.
=109	=109
1r	.
=110	=110
1r	.
=111	=111
1r	.
=112	=112
2r	1F:dom
*>solo5	*>solo5
{8f/L	.
8g/	.
8b-/	.
[8dd-/J	.
=113	=113	!!Chorus 5
8dd-\L]	1B-:dom
8b-\J	.
[2cc\	.
8cc\L]	.
8b-\J	.
=114||	=114||
4r	1E-:dom
8r	.
16cc\LL	.
16b-\JJ	.
8a-/L	.
8f/	.
8g/	.
8f/J	.
=115	=115
2r	1B-:dom
4r	.
12a-/L	.
12b-/	.
12a-/J	.
=116	=116
8g/L	1B-:dom
8g-/	.
8f/	.
8e-/J	.
8d/L	.
8c/	.
8B-/	.
8A-/J	.
=117	=117
8G/L	1E-:dom
8B-/	.
8c/	.
8d/J	.
8f/L	.
[8e-/J	.
4e-/]}	.
=118	=118
1r	1E-:dom
=119	=119
4r	1B-:dom
{12dd\L	.
12ee-\	.
12een\J	.
8ff\L	.
8a\	.
8b-\	.
8ee-\J	.
=120	=120
8cc\L	2B-:dom
8cc#\	.
8dd\	.
8ccn\J	.
8b/L	2G:dom
8a-/	.
8g/	.
8f/J	.
=121	=121
12e-/L	1C:min
12g/	.
12b-/J	.
8dd\L	.
8cc\J	.
4r	.
8r	.
[8b-\	.
=122	=122
8b-\L]	1F:dom
16cc\L	.
16b-\J	.
8a\	.
8g\J	.
8f/L	.
8e-/	.
8d/	.
8c/J	.
=123	=123
8A/L	1B:dom
8B-/	.
8c/	.
[8B-/J	.
4B-/]}	.
4r	.
=124	=124
1r	1F:dom
=125	=125
*>solo6	*>solo6
{4B-/	1B-:dom	!!Chorus 6
8d/L	.
8c/J	.
4B-/	.
4f/	.
=126||	=126||
4d/	1E-:dom
[2.b-\	.
=127	=127
4b-\]	1B-:dom
12a-/L	.
12b-/	.
12a-/J	.
8g/L	.
8g-/	.
8f/	.
8e-/J	.
=128	=128
8d/L	1B-:dom
8c/	.
8B-/	.
8A/J	.
8A-/L	.
8c/	.
8b-/	.
8a-/J	.
=129	=129
8g/L	1E-:dom
8g-/J	.
4f/	.
4r	.
8r	.
8e/	.
=130	=130
8e-/L	1E-:dom
8A/	.
8B-/	.
8c/J	.
8d-/L	.
8B-/	.
8G/	.
8A/J	.
=131	=131
8c/L	1B-:dom
8A/J	.
12B-/L	.
12d/	.
12f/J	.
12a\L	.
12b-\	.
12bn\J	.
8cc/L	.
8a/J	.
=132	=132
8ff\L	1B-:dom
8cc\J}	.
4r	.
4r	.
8r	.
{8dd\	.
=133	=133
4ee-\	1C:min
4r	.
4r	.
8r	.
8dd\	.
=134	=134
6ee-\	1F:dom
6ff\	.
6dd\	.
4r	.
8r	.
[8a/	.
=135	=135
12a\L]	1B-:dom
12b-\	.
12bn\J	.
8cc/L	.
8a/J	.
8b-/L	.
8f/J}	.
4r	.
=136	=136
8r	2C:min
{[8a-/L	.
8a-/]	.
16b-/L	.
16a-/JJ	.
6f/	2F:dom
6e-/	.
12c/L	.
12B-/J	.
=137	=137	!!Chorus 7
4.d/	1B-:dom
8f/}	.
4r	.
8r	.
*>solo7	*solo7
{8d/	.
=138||	=138||
8e-/L	1E-:dom
8f/	.
8g/	.
8a/J	.
8b-/L	.
8f/	.
8d/	.
8B-/J	.
=139	=139
8f#/L	1B-:dom
8g/	.
8e-/	.
8c/J	.
8fn/L	.
8g/	.
8a-/	.
8g/J	.
=140	=140
8f/L	1B-:dom
8e-/	.
8d/	.
8c/J	.
8A/L	.
8A-/J}	.
4r	.
=141	=141
4r	1E-:dom
8r	.
{8B-/	.
8G/L	.
8B-/	.
8c/	.
8B-/J	.
=142	=142
8f/L	1E-:dom
8e-/	.
8B-/	.
8G/J	.
8c/L	.
8d-/	.
8B-/	.
8G/J	.
=143	=143
8c/L	1B-:dom
8A/J	.
12B-/L	.
12d/	.
12f/J	.
12a\L	.
12b-\	.
12bn\J	.
8cc/L	.
8a/J	.
=144	=144
8b-/L	1B-:dom
8a/	.
8g/	.
8g-/J	.
8f/L	.
8e/	.
8e-/	.
8B-/J	.
=145	=145
8d/L	1C:min
8c/	.
8d/	.
[8c/J	.
4c/]}	.
4r	.
=146	=146
2r	1F:dom
8r	.
{16B/LL	.
16e-/JJ	.
12g-\L	.
12b-\	.
12dd-\J	.
=147	=147
4.aa-\	1B-:dom
8gg-\	.
8ff\L	.
8ee\J	.
4ee-\	.
=148	=148
2r	1F:dom
4dd\	.
8ff\L	.
8ee-\J	.
=149	=149
8dd\L	1B-:dom
8b-\J}	.
4r	.
2r	.
=150||	=150||
1r	.
=151	=151
1r	.
=152	=152
1r	.
=153	=153
1r	.
=154	=154
1r	.
=155	=155
1r	.
=156	=156
1r	.
=157	=157
1r	.
=158	=158
1r	.
=159	=159
1r	.
=160	=160
1r	.
=161	=161	!!Chorus 8
*>solo8	*>solo8
{4f/	1B-:dom
8cc/L	.
8a/J	.
8b/L	.
8a-/	.
8e/	.
8d-/J	.
=162||	=162||
8b-/L	1E-:dom
8a/	.
8g/	.
8g-/J	.
8f/L	.
8e/	.
8e-/	.
8B-/J	.
=163	=163
8G/L	1B-:dom
8F#/	.
8d/	.
8c/J	.
8B-/L	.
8G/J	.
12A-/L	.
12c/	.
12e-/J	.
=164	=164
8dd/L	1B-:dom
8f#/	.
8e-/	.
8en/J	.
8f#/L	.
8e-/	.
8d/	.
8c/J}	.
=165	=165
2r	1E-:dom
4r	.
8r	.
{8f#/	.
=166	=166
12g\L	1E-:dom
12b-\	.
12dd\J	.
8ff\L	.
8ee-\J	.
8dd\L	.
8cc\	.
8b-\	.
8g-\J	.
=167	=167
8e-/L	1B-:dom
8c/	.
8f/	.
8e-/J	.
8d/L	.
8c/	.
8A/	.
8B-/J	.
=168	=168
8c/L	1G:dom
8B-/	.
8Bn/	.
8d/J	.
8f/L	.
8a-/	.
8g/	.
8f/J	.
=169	=169
8e/L	1C:dom
8g/	.
8b-/	.
8dd/J	.
8a-/L	.
8an/	.
8cc/	.
8bn/J	.
=170	=170
8b-/L	2C:min
8a/	.
8g/	.
8g-/J	.
8f/L	2F:dom
8B-/	.
8A/	.
8B-/J	.
=171	=171
8c/L	1B-:dom
8B-/	.
8A/	.
8B-/J	.
8d/L	.
8B-/	.
8A/	.
8B-/J	.
=172	=172
8e-/L	1B-:dom:4+
8B-/	.
8en/J}	.
8r	.
2r	.
==	==
*-	*-
